assets/textual/original.svg

<svg fill="#fff" viewBox="0 0 24 24" xmlns="http://www.w3.org/2000/svg"><path d="m13.746 2.731h10.254l-1.722 3.873-3.143 1.768h-2.135l-5.182 10.552-3.128 2.345h-3.407l.747-11.216h-4.36l-1.67-3.757 2.511-1.884h8.246zm-11.037 2.275-1.45 1.088h8.952l.249-1.088zm-1.884 1.684 1.23 2.77h4.611l-.747 11.215h.941l3.214-13.985zm7.567 13.985 5.232-12.897h5.24l1.23-2.77h-9.024l-3.601 15.667zm14.02-17.35h-8.508l-1.935 1.087h8.505z"/></svg>

<svg xmlns="http://www.w3.org/2000/svg" fill="#fff" viewBox="0 0 24 24"><title>Textual</title><path d="M13.746 2.731H24l-1.722 3.873-3.143 1.768H17l-5.182 10.552-3.128 2.345H5.283l.747-11.216H1.67L0 6.296l2.511-1.884h8.246zM2.709 5.006l-1.45 1.088h8.952l.249-1.088zM.825 6.69l1.23 2.77h4.611l-.747 11.215h.941L10.074 6.69zm7.567 13.985 5.232-12.897h5.24l1.23-2.77H11.07L7.469 20.675zm14.02-17.35h-8.508l-1.935 1.087h8.505z"/></svg>
